X: 36139
T: Scotch Mary
R: reel
M: 4/4
K: Adorian
cded cded|BEEF G2AB|cded cded|cABG A2AB|
cded cded|BEEF G2AB|cdeg f2ed|cABG A2AB||

